X:4572
L:1/8
M:3/4
K:G
 G,A, |:"G" B,E DG, B,E |"D7" TDA, CE D2 | (CE) (DG) (FA) |"G" (GA) .B.e d2 | (Bd) .b.a .g.f | 
"Am/C" e2 c'b ag |"D7" fe d2 ca |1"G" g2 z2 G,A, :|2"G" g2 z2 z2 |:"D7" DF Ac BA |"G" GB eB d2 | 
"D7" Ac gc fc |"G" db gd BG |"D7" DF Ad fa |"G" gb dg Bd |"D7" ce dg fa |"G" g2 z2 z2 :: 
"G" B,E DG, B,E |"D7" TDA, CE D2 | (CE) (DG) (FA) |"G" (GA) .B.e d2 | (Bd) .b.a .g.f | 
"Am/C" e2 c'b ag |"D7" fe d2 ca |1"G" g2 z2 G,A, :|2"G" g2 z2 z2 |]

